X: 16334
T: Gruncharsko Horo
R: slip jig
M: 9/8
K: Aminor
|:GA AGE A2A2|AB c2G c2c2|cd e2d cBA2|cBG ^FE A2A2:|
|:cd e2d cBA2|cBG ^FE^FG AB|cB d2B c2c2|B2G ^FE A2A2:|
|:{g}a2 a2g aa aa|g g2 fee ee2|g2 agf e2Bd|{f}g2f ed e2e2:|
|:d2 def g2fe|fed ec d2cB|AAA Bcd2 cB|cBA BG A2A2:|

